X:0723
T:North Fencibles.
M:9/8
L:1/8
Q:3/8=120
I: :: :|
N:the ^c looks like a mistake
Z:Jack Campin * www.campin.me.uk * 2009
K:A Dorian
g| gfg BGB BGB| gfg BGB A2a| gfg BGB BGB|^c2e ecA A2:|
g|Tf2g afd B2g|Tf2d afd d2g|Tf2g aef d2g| f2g dBA A2:|

